src/images/circuits/austrian.svg

<svg width="40" height="26" viewBox="0 0 40 26" fill="none" xmlns="http://www.w3.org/2000/svg">
<path d="M11.1265 2.03784C13.632 2.70495 22.1043 3.62188 24.0713 3.71036C25.8676 3.79117 25.428 4.68247 25.3381 4.83659C25.329 4.85218 25.3204 4.86655 25.3119 4.88246C24.6013 6.21082 22.2962 8.69806 18.6429 8.19988C14.0495 7.57351 13.0055 7.26032 11.6484 8.40867C10.2913 9.55702 11.7528 11.8537 12.6924 13.6284C13.6319 15.4032 14.5715 16.2383 16.033 16.3427C17.129 16.421 18.066 14.9766 18.4657 14.1075C18.5146 14.0011 18.5953 13.912 18.6991 13.8578L20.8392 12.7413C20.9053 12.7068 20.9783 12.6875 21.0528 12.6849L29.8132 12.3757L35.6817 12.4787C35.736 12.4796 35.7899 12.4894 35.8411 12.5077L36.9853 12.9164C37.1361 12.9702 37.2519 13.093 37.297 13.2466L38.881 18.651C38.9497 18.8854 38.8391 19.135 38.6193 19.2416L35.5918 20.7095C35.5673 20.7214 35.5418 20.7312 35.5157 20.739L29.9176 22.3977L16.6716 25.3525C16.4746 25.3965 16.2704 25.3176 16.1541 25.1526L11.8782 19.0869C11.8642 19.067 11.8521 19.047 11.8412 19.0253C10.2694 15.9166 7.07474 9.57535 6.74181 8.82626C6.32423 7.8867 1 2.45722 1 1.51766C1 0.775985 3.16847 0.989422 4.29587 1.19564C4.32626 1.2012 4.35508 1.20393 4.38596 1.20403C5.63301 1.20808 8.65142 1.37883 11.1265 2.03784Z" stroke="#FF0000"/>
</svg>

<svg width="40" height="26" fill="none" xmlns="http://www.w3.org/2000/svg"><path d="M11.127 2.038c2.505.667 10.977 1.584 12.944 1.672 1.797.081 1.357.972 1.267 1.127l-.026.045c-.71 1.329-3.016 3.816-6.67 3.318-4.592-.626-5.636-.94-6.994.209-1.357 1.148.105 3.445 1.044 5.22.94 1.774 1.88 2.61 3.341 2.714 1.096.078 2.033-1.366 2.433-2.236a.528.528 0 0 1 .233-.25l2.14-1.116a.5.5 0 0 1 .214-.056l8.76-.31 5.869.104c.054 0 .108.01.16.029l1.143.408a.5.5 0 0 1 .312.33l1.584 5.405a.5.5 0 0 1-.262.59l-3.027 1.468a.505.505 0 0 1-.076.03l-5.598 1.659-13.246 2.954a.5.5 0 0 1-.518-.2l-4.276-6.065a.48.48 0 0 1-.037-.062c-1.572-3.108-4.766-9.45-5.1-10.199C6.325 7.886 1 2.457 1 1.518c0-.742 2.168-.529 3.296-.322.03.005.06.008.09.008 1.247.004 4.265.175 6.74.834Z" stroke="red"/></svg>
